examples/minimal-portfolio/src/@openarchitex/gatsby-theme-minimal-portfolio/images/logo.svg

<?xml version="1.0" encoding="UTF-8" standalone="no"?>
<svg
   xmlns:dc="http://purl.org/dc/elements/1.1/"
   xmlns:cc="http://creativecommons.org/ns#"
   xmlns:rdf="http://www.w3.org/1999/02/22-rdf-syntax-ns#"
   xmlns:svg="http://www.w3.org/2000/svg"
   xmlns="http://www.w3.org/2000/svg"
   xmlns:sodipodi="http://sodipodi.sourceforge.net/DTD/sodipodi-0.dtd"
   xmlns:inkscape="http://www.inkscape.org/namespaces/inkscape"
   inkscape:version="1.0 (6e3e5246a0, 2020-05-07)"
   sodipodi:docname="logo.svg"
   id="svg2"
   height="542.91956pt"
   width="542.91956pt"
   version="1.0">
  <metadata
     id="metadata22">
    <rdf:RDF>
      <cc:Work
         rdf:about="">
        <dc:format>image/svg+xml</dc:format>
        <dc:type
           rdf:resource="http://purl.org/dc/dcmitype/StillImage" />
        <dc:title></dc:title>
      </cc:Work>
    </rdf:RDF>
  </metadata>
  <sodipodi:namedview
     inkscape:current-layer="svg2"
     inkscape:window-maximized="1"
     inkscape:window-y="27"
     inkscape:window-x="0"
     inkscape:cy="355.8561"
     inkscape:cx="385.85039"
     inkscape:zoom="0.99487671"
     showgrid="false"
     id="namedview20"
     inkscape:window-height="960"
     inkscape:window-width="1920"
     inkscape:pageshadow="2"
     inkscape:pageopacity="0"
     guidetolerance="10"
     gridtolerance="10"
     objecttolerance="10"
     borderopacity="1"
     bordercolor="#666666"
     pagecolor="#ffffff" />
  <defs
     id="defs5" />
  <g
     id="g3086"
     transform="matrix(1.8381666,0,0,1.7845363,-76.369982,-61.622269)">
    <path
       id="path2207"
       style="fill:#9b8083;fill-opacity:1;fill-rule:evenodd;stroke:none;stroke-width:1px;stroke-linecap:butt;stroke-linejoin:miter;stroke-opacity:1"
       d="M 86.952451,350.25926 211.48225,288.56327 v 31.73651 l -81.04802,40.25465" />
    <path
       id="path3954"
       style="fill:#ffffc8;fill-opacity:1;fill-rule:evenodd;stroke:none;stroke-width:1px;stroke-linecap:butt;stroke-linejoin:miter;stroke-opacity:1"
       d="m 86.658325,329.93645 97.708215,-47.99791 26.98098,6.90752 -124.462036,61.6194" />
    <path
       id="path1331"
       style="fill:#9b8083;fill-opacity:1;fill-rule:evenodd;stroke:none;stroke-width:1px;stroke-linecap:butt;stroke-linejoin:miter;stroke-opacity:1"
       d="m 68.484778,359.64478 18.583243,-9.26743 -0.382784,-192.96551 -18.532706,-4.1848" />
    <path
       id="path2209"
       style="fill:#ffffc8;fill-opacity:1;fill-rule:evenodd;stroke:none;stroke-width:1px;stroke-linecap:butt;stroke-linejoin:miter;stroke-opacity:1"
       d="M 247.44219,388.17706 87.140094,350.28156 68.541801,359.56405 247.14328,402.3755" />
    <path
       id="path4030"
       style="fill:#bcdaff;fill-opacity:1;fill-rule:evenodd;stroke:none;stroke-width:1px;stroke-linecap:butt;stroke-linejoin:miter;stroke-opacity:1"
       d="m 41,114.375 v 269.9375 l 232.21875,55.75 0.21083,-270.98042 z m 27.53125,39.1875 177.25,41.8125 v 206.78125 l -177.25,-42.5625 z" />
    <path
       id="path4037"
       style="fill:#9b8083;fill-opacity:1;fill-rule:evenodd;stroke:none;stroke-width:1px;stroke-linecap:butt;stroke-linejoin:miter;stroke-opacity:1"
       d="M 434.76093,90.164629 V 360.10211 l -161.5042,80.07682 V 169.0931 Z m -19.14752,42.071651 -123.27436,60.38078 v 206.78125 l 123.27436,-61.13078 z" />
    <path
       id="path5814"
       style="fill:#9b8083;fill-opacity:1;fill-rule:evenodd;stroke:none;stroke-width:1px;stroke-linecap:butt;stroke-linejoin:miter;stroke-opacity:1"
       d="M 86.943958,111.8566 210.94182,50.494216 v 32.139762 l -80.31853,39.407142 v 0" />
    <path
       id="path5816"
       style="fill:#bcdaff;fill-opacity:1;fill-rule:evenodd;stroke:none;stroke-width:1px;stroke-linecap:butt;stroke-linejoin:miter;stroke-opacity:1"
       d="M 389.07175,93.295537 210.73046,50.388534 210.83614,82.621628 345.18596,114.8157" />
    <path
       id="path5803"
       style="fill:#ffffc8;fill-opacity:1;fill-rule:evenodd;stroke:none;stroke-width:1px;stroke-linecap:butt;stroke-linejoin:miter;stroke-opacity:1"
       d="M 202.8125,34.53125 41.40625,114.46875 273.34375,169 434.8125,90.28125 Z m 8.25,15.90625 178.25,42.84375 -124.0625,60.4375 -178.1875,-41.875 z" />
    <path
       id="path3964"
       style="fill:#9b8083;fill-opacity:1;fill-rule:evenodd;stroke:none;stroke-width:1px;stroke-linecap:butt;stroke-linejoin:miter;stroke-opacity:1"
       d="m 210.83037,82.657166 19.49402,4.668737 V 279.44925 l -19.49402,9.69718 0.48085,-0.0481" />
    <path
       id="path1325"
       style="fill:#bcdaff;fill-opacity:1;fill-rule:evenodd;stroke:none;stroke-width:1px;stroke-linecap:butt;stroke-linejoin:miter;stroke-opacity:1"
       d="M 184.30989,282.14977 V 95.620557 l 26.50907,-12.923607 0.55563,206.21442" />
    <path
       id="path4846"
       style="fill:#bcdaff;fill-opacity:1;fill-rule:evenodd;stroke:none;stroke-width:1px;stroke-linecap:butt;stroke-linejoin:miter;stroke-opacity:1"
       d="m 211.52275,288.79783 v 31.42954 l 134.49145,32.29723 43.67357,-21.30653" />
    <path
       id="path4842"
       style="fill:#ffffc8;fill-opacity:1;fill-rule:evenodd;stroke:none;stroke-width:1px;stroke-linecap:butt;stroke-linejoin:miter;stroke-opacity:1"
       d="m 390.53194,317.33115 -160.06877,-37.96216 -18.83162,9.41581 178.60148,42.74479" />
    <path
       id="path2205"
       style="fill:#bcdaff;fill-opacity:1;fill-rule:evenodd;stroke:none;stroke-width:1px;stroke-linecap:butt;stroke-linejoin:miter;stroke-opacity:1"
       d="m 415.72361,132.10888 -26.1546,12.58149 -0.13333,186.44957 26.42126,6.87226" />
    <path
       id="path4848"
       style="fill:#ffffc8;fill-opacity:1;fill-rule:evenodd;stroke:none;stroke-width:1px;stroke-linecap:butt;stroke-linejoin:miter;stroke-opacity:1"
       d="m 415.76525,338.12495 -123.39789,61.23546 v -20.64334 l 97.13716,-47.49092 z" />
  </g>
</svg>

<?xml version="1.0" encoding="UTF-8" standalone="no"?>
<!-- Created with Inkscape (http://www.inkscape.org/) -->
<svg xmlns:svg="http://www.w3.org/2000/svg" xmlns="http://www.w3.org/2000/svg" version="1.0" width="210mm" height="612.89001pt" id="svg2">
    <defs id="defs5"/>
    <g transform="matrix(1.838166,0,0,1.838166,-64.3648,-50.94291)" id="g3086">
        <path d="M 86.952451,350.25926 L 211.48225,288.56327 L 211.48225,320.29978 L 130.43423,360.55443" style="fill:#9b8083;fill-opacity:1;fill-rule:evenodd;stroke:none;stroke-width:1px;stroke-linecap:butt;stroke-linejoin:miter;stroke-opacity:1" id="path2207"/>
        <path d="M 86.658325,329.93645 L 184.36654,281.93854 L 211.34752,288.84606 L 86.885484,350.46546" style="fill:#ffffc8;fill-opacity:1;fill-rule:evenodd;stroke:none;stroke-width:1px;stroke-linecap:butt;stroke-linejoin:miter;stroke-opacity:1" id="path3954"/>
        <path d="M 68.484778,359.64478 L 87.068021,350.37735 L 86.685237,157.41184 L 68.152531,153.22704" style="fill:#9b8083;fill-opacity:1;fill-rule:evenodd;stroke:none;stroke-width:1px;stroke-linecap:butt;stroke-linejoin:miter;stroke-opacity:1" id="path1331"/>
        <path d="M 247.44219,388.17706 L 87.140094,350.28156 L 68.541801,359.56405 L 247.14328,402.3755" style="fill:#ffffc8;fill-opacity:1;fill-rule:evenodd;stroke:none;stroke-width:1px;stroke-linecap:butt;stroke-linejoin:miter;stroke-opacity:1" id="path2209"/>
        <path d="M 41,114.375 L 41,384.3125 L 273.21875,440.0625 L 273.42958,169.08208 L 41,114.375 z M 68.53125,153.5625 L 245.78125,195.375 L 245.78125,402.15625 L 68.53125,359.59375 L 68.53125,153.5625 z " style="fill:#bcdaff;fill-opacity:1;fill-rule:evenodd;stroke:none;stroke-width:1px;stroke-linecap:butt;stroke-linejoin:miter;stroke-opacity:1" id="path4030"/>
        <path d="M 434.76093,90.164629 L 434.76093,360.10211 L 273.25673,440.17893 L 273.25673,169.0931 L 434.76093,90.164629 z M 415.61341,132.23628 L 292.33905,192.61706 L 292.33905,399.39831 L 415.61341,338.26753 L 415.61341,132.23628 z " style="fill:#9b8083;fill-opacity:1;fill-rule:evenodd;stroke:none;stroke-width:0.99999982px;stroke-linecap:butt;stroke-linejoin:miter;stroke-opacity:1" id="path4037"/>
        <path d="M 86.943958,111.8566 L 210.94182,50.494216 L 210.94182,82.633978 L 130.62329,122.04112 L 130.62329,122.04112" style="fill:#9b8083;fill-opacity:1;fill-rule:evenodd;stroke:none;stroke-width:1px;stroke-linecap:butt;stroke-linejoin:miter;stroke-opacity:1" id="path5814"/>
        <path d="M 389.07175,93.295537 L 210.73046,50.388534 L 210.83614,82.621628 L 345.18596,114.8157" style="fill:#bcdaff;fill-opacity:1;fill-rule:evenodd;stroke:none;stroke-width:1px;stroke-linecap:butt;stroke-linejoin:miter;stroke-opacity:1" id="path5816"/>
        <path d="M 202.8125,34.53125 L 41.40625,114.46875 L 273.34375,169 L 434.8125,90.28125 L 202.8125,34.53125 z M 211.0625,50.4375 L 389.3125,93.28125 L 265.25,153.71875 L 87.0625,111.84375 L 211.0625,50.4375 z " style="fill:#ffffc8;fill-opacity:1;fill-rule:evenodd;stroke:none;stroke-width:0.99999976px;stroke-linecap:butt;stroke-linejoin:miter;stroke-opacity:1" id="path5803"/>
        <path d="M 210.83037,82.657166 L 230.32439,87.325903 L 230.32439,279.44925 L 210.83037,289.14643 L 211.31122,289.09834" style="fill:#9b8083;fill-opacity:1;fill-rule:evenodd;stroke:none;stroke-width:1px;stroke-linecap:butt;stroke-linejoin:miter;stroke-opacity:1" id="path3964"/>
        <path d="M 184.30989,282.14977 L 184.30989,95.620557 L 210.81896,82.69695 L 211.37459,288.91137" style="fill:#bcdaff;fill-opacity:1;fill-rule:evenodd;stroke:none;stroke-width:1px;stroke-linecap:butt;stroke-linejoin:miter;stroke-opacity:1" id="path1325"/>
        <path d="M 211.52275,288.79783 L 211.52275,320.22737 L 346.0142,352.5246 L 389.68777,331.21807" style="fill:#bcdaff;fill-opacity:1;fill-rule:evenodd;stroke:none;stroke-width:1px;stroke-linecap:butt;stroke-linejoin:miter;stroke-opacity:1" id="path4846"/>
        <path d="M 390.53194,317.33115 L 230.46317,279.36899 L 211.63155,288.7848 L 390.23303,331.52959" style="fill:#ffffc8;fill-opacity:1;fill-rule:evenodd;stroke:none;stroke-width:1px;stroke-linecap:butt;stroke-linejoin:miter;stroke-opacity:1" id="path4842"/>
        <path d="M 415.72361,132.10888 L 389.56901,144.69037 L 389.43568,331.13994 L 415.85694,338.0122" style="fill:#bcdaff;fill-opacity:1;fill-rule:evenodd;stroke:none;stroke-width:1px;stroke-linecap:butt;stroke-linejoin:miter;stroke-opacity:1" id="path2205"/>
        <path d="M 415.76525,338.12495 L 292.36736,399.36041 L 292.36736,378.71707 L 389.50452,331.22615 L 415.76525,338.12495 z " style="fill:#ffffc8;fill-opacity:1;fill-rule:evenodd;stroke:none;stroke-width:1px;stroke-linecap:butt;stroke-linejoin:miter;stroke-opacity:1" id="path4848"/>
    </g>
</svg>
